actions/symbolic/edit-paste-symbolic.svg

<?xml version="1.0" encoding="UTF-8" standalone="no"?>
<svg
   width="16"
   height="16"
   version="1.1"
   id="svg1"
   xmlns="http://www.w3.org/2000/svg"
   xmlns:svg="http://www.w3.org/2000/svg">
  <defs
     id="defs1" />
  <path
     d="M7.45 0C7.2 0 7 .223 7 .5V1H5.5c-.277 0-.5.223-.5.5v1c0 .277.223.5.5.5h5c.277 0 .5-.223.5-.5v-1c0-.277-.223-.5-.5-.5H9V.5c0-.277-.2-.5-.45-.5h-1.1zM2.5 1C1.669 1 1 1.669 1 2.5v12c0 .831.669 1.5 1.5 1.5h11c.831 0 1.5-.669 1.5-1.5v-12c0-.831-.669-1.5-1.5-1.5H12v1h1v7H8v.25A.25.25 0 0 0 7.75 9h-2.5a.25.25 0 0 0-.25.25v.5c0 .139.112.25.25.25h2.5A.25.25 0 0 0 8 9.75V14H3V2h1V1H2.5zm2.75 4a.25.25 0 0 0-.25.25v.5c0 .138.112.25.25.25h5.5a.25.25 0 0 0 .25-.25v-.5a.25.25 0 0 0-.25-.25h-5.5zm0 2a.25.25 0 0 0-.25.25v.5c0 .138.112.25.25.25h5.5a.25.25 0 0 0 .25-.25v-.5a.25.25 0 0 0-.25-.25h-5.5zm3.791 3H13l-3.959 3.959V10z"
     fill="#666"
     id="path1"
     style="fill:#555761" />
</svg>

<svg
        xmlns='http://www.w3.org/2000/svg'
        xmlns:svg='http://www.w3.org/2000/svg'
        id='svg1'
        width='16'
        height='16'>
  <path
          id='path1'
          fill='url(#gpa:foreground) #555761'
          fill-opacity='1'
          fill-rule='nonzero'
          d='M 7.45 0 C 7.2 0, 7 0.223, 7 0.5 L 7 1 L 5.5 1 C 5.223 1, 5 1.223, 5 1.5 L 5 2.5 C 5 2.777, 5.223 3, 5.5 3 L 10.5 3 C 10.777 3, 11 2.777, 11 2.5 L 11 1.5 C 11 1.223, 10.777 1, 10.5 1 L 9 1 L 9 0.5 C 9 0.223, 8.8 0, 8.55 0 L 7.45 0 Z M 2.5 1 C 1.669 1, 1 1.669, 1 2.5 L 1 14.5 C 1 15.331, 1.669 16, 2.5 16 L 13.5 16 C 14.331 16, 15 15.331, 15 14.5 L 15 2.5 C 15 1.669, 14.331 1, 13.5 1 L 12 1 L 12 2 L 13 2 L 13 9 L 8 9 L 8 9.25 A 0.25 0.25 0 0 0 7.75 9 L 5.25 9 A 0.25 0.25 0 0 0 5 9.25 L 5 9.75 C 5 9.889, 5.112 10, 5.25 10 L 7.75 10 A 0.25 0.25 0 0 0 8 9.75 L 8 14 L 3 14 L 3 2 L 4 2 L 4 1 L 2.5 1 Z M 5.25 5 A 0.25 0.25 0 0 0 5 5.25 L 5 5.75 C 5 5.888, 5.112 6, 5.25 6 L 10.75 6 A 0.25 0.25 0 0 0 11 5.75 L 11 5.25 A 0.25 0.25 0 0 0 10.75 5 L 5.25 5 Z M 5.25 7 A 0.25 0.25 0 0 0 5 7.25 L 5 7.75 C 5 7.888, 5.112 8, 5.25 8 L 10.75 8 A 0.25 0.25 0 0 0 11 7.75 L 11 7.25 A 0.25 0.25 0 0 0 10.75 7 L 5.25 7 Z M 9.041 10 L 13 10 L 9.041 13.959 L 9.041 10 Z'
          class="foreground">
  </path>
</svg>
